src/22/actions/view-time-schedule-baselined.svg

<svg xmlns="http://www.w3.org/2000/svg" viewBox="0 0 22 22"><path d="M3 3v16h16V3h-2v3h-2V3H7v3H5V3H3zm1 4h14v11H4V7zm1 1v3h1v-1h4v1h1V8h-1v1H6V8H5zm5 6v3h1v-1h4v1h1v-3h-1v1h-4v-1h-1z" fill="currentColor" color="#5d656b"/><path d="M12 7h1v11h-1V7z" fill="currentColor" color="#3daee9"/></svg>

<svg xmlns="http://www.w3.org/2000/svg" viewBox="0 0 22 22">
  <defs id="defs3051">
    <style type="text/css" id="current-color-scheme">
      .ColorScheme-Text {
        color:#5d656b;
      }
      .ColorScheme-Highlight {
        color:#3daee9;
      }
      </style>
  </defs>
 <path 
     style="fill:currentColor;fill-opacity:1;stroke:none" 
     d="M 3 3 L 3 19 L 19 19 L 19 3 L 17 3 L 17 6 L 15 6 L 15 3 L 7 3 L 7 6 L 5 6 L 5 3 L 3 3 z M 4 7 L 18 7 L 18 18 L 4 18 L 4 7 z M 5 8 L 5 11 L 6 11 L 6 10 L 10 10 L 10 11 L 11 11 L 11 8 L 10 8 L 10 9 L 6 9 L 6 8 L 5 8 z M 10 14 L 10 17 L 11 17 L 11 16 L 15 16 L 15 17 L 16 17 L 16 14 L 15 14 L 15 15 L 11 15 L 11 14 L 10 14 z "
     class="ColorScheme-Text"
     />
 <path 
     style="fill:currentColor;fill-opacity:1;stroke:none" 
     d="m 433.71432,532.79071 0.99995,0 c 10e-6,0 2e-5,10e-6 2e-5,3e-5 l 0,10.99994 c 0,2e-5 -1e-5,3e-5 -2e-5,3e-5 l -0.99995,0 c -10e-6,0 -3e-5,-10e-6 -3e-5,-3e-5 l 0,-10.99994 c 0,-2e-5 2e-5,-3e-5 3e-5,-3e-5 z"
     class="ColorScheme-Highlight"
     transform="translate(-421.71429,-525.79074)"
     />
</svg>
